X:2
T: Der keusche Dienstknecht
N: Q0033
O: Mitteleuropa, Deutschland / Frankreich, Lothringen,
R: Ballade, Verfuehrung, Tod, Ehe, Moral
M: 3/4
L: 1/8
K: F
FFF | c3dd2 | c2B2cc | A2F2
F2 | F2F2c2 | B3AG2 | F2G2A2 | G2C2z2 |
C2D2E2 | G4c2 | A2G2A2 | F2z

@@@ Tune index: 738
